!!!SOCIAL_FUNCTION:	songs of war
!!!PDT:	1913
!!!OTL: No_34_The_Sioux_Women_Gather_Up_Their_Wounded.krn
!!!REG: Great_Lakes
!!!LANG: Non-Tone
!!!LING_GROUP: Algonquin
**kern	**kern
*staff2	*staff1
*clefF4	*clefF4
*k[]	*k[]
*M2/4	*M2/4
4.r	16r
.	16c\LK
.	8.e\
.	16g\Jk
=1	=1
8GG^/L	4e\
8GG/J	.
8GG^/L	8d\L
8GG/J	8c\J
=2	=2
8GG^/L	8.e\L
8GG/J	.
.	16e\Jk
8GG^/L	8.e\L
8GG/J	.
.	16e\Jk
=3	=3
2r	4d\
.	8A\L
.	8G\J
=4||	=4||
*M3/4	*M3/4
2.r	(4c\
.	8.A\L)
.	16c\Jk
.	8.c\L
.	16c\Jk
=5||	=5||
*M2/4	*M2/4
2r	4e\
.	8e\L
.	8d\J
=6||	=6||
*M3/4	*M3/4
2.r	4c\
.	8.A\L
.	16d\Jk
.	8.d\L
.	16A\Jk
=7||	=7||
*M2/4	*M2/4
2r	4A\
.	8A\L
.	8G\J
=8	=8
2r	8.A\L
.	16A\Jk
.	8.A\L
.	16G\Jk
=9	=9
2r	4E\
.	8D/L
.	8C/J
=10	=10
2r	4D\
.	8.E\L
.	16E\Jk
=11	=11
2r	8.E\L
.	16D\Jk
.	4C;/
=12	=12
2r	4D\
.	4C/
=13	=13
2r	8AA/L
.	8C/J
.	8.AA/L
.	16AA/Jk
=14	=14
2r	2AA/
==	==
*-	*-
